X:21173 
T:RIGHTS OF MAN (hornpipe), The 
B:DMI.0811
Z:Nordberg/Black
R:hornpipe
%Q:1/4=150
M:C|
L:1/8
K:Em
GA|BdAB GAGF|EFGA B2ef|gfed edBd|cBAG A2GA|
BdAB GAGF|EFGA B2ef|gfed Bgfg|e2E2E2|]
ga|babg efga|babg egfe|d2d^c defg|afbf afdf|
edef gfga|bgaf gfef|gfed Bgfg|e2E2E2|]

%%%

